components/2.0/icon/icons/icon-text-smallcaps-22px.svg

<svg width="22" height="22" xmlns="http://www.w3.org/2000/svg"><g fill="#3D4752" fill-rule="evenodd"><path d="M1 4h10v3.6h-.5c-.2-1-.6-2-1-2.2C9.3 5 7 5 7 5v11c0 .8.2 1 .4 1.2.3.2.7.3 1.6.4v.4H3v-.4c1 0 1.4-.2 1.6-.4.2-.2.4-.3.4-1.2V5H3.8c-1.2 0-1 0-1.4.4-.4.3-.7 1-1 2.2H1V4zM11 8h10v3.6h-.5c-.2-1-.6-2-1-2.2C19.3 9 17 9 17 9v7c0 .8.2 1 .4 1.2.3.2.7.3 1.6.4v.4h-6v-.4c1 0 1.4-.2 1.6-.4.2-.2.4-.3.4-1.2V9h-1.2c-1.2 0-1 0-1.4.4-.4.3-.7 1-1 2.2H11V8z"/></g></svg>

<?xml version="1.0" encoding="UTF-8" standalone="no"?>
<svg width="22px" height="22px" viewBox="0 0 22 22" version="1.1" xmlns="http://www.w3.org/2000/svg" xmlns:xlink="http://www.w3.org/1999/xlink" xmlns:sketch="http://www.bohemiancoding.com/sketch/ns">
    <!-- Generator: Sketch 3.4.4 (17249) - http://www.bohemiancoding.com/sketch -->
    <title>icon-text-smallcaps-22px</title>
    <desc>Created with Sketch.</desc>
    <defs></defs>
    <g id="22px" stroke="none" stroke-width="1" fill="none" fill-rule="evenodd" sketch:type="MSPage">
        <g id="icon-text-smallcaps-22px" sketch:type="MSArtboardGroup" fill="#3D4752">
            <path d="M1,4 L11,4 L11,7.6 L10.5,7.6 C10.3,6.5 9.9,5.7 9.6,5.4 C9.2,5.1 7,5 7,5 L7,16 C7,16.8 7.2,17 7.4,17.2 C7.7,17.4 8.1,17.5 9,17.6 L9,18 L3,18 L3,17.6 C3.9,17.5 4.4,17.4 4.6,17.2 C4.8,17 5,16.9 5,16 L5,5 L3.8,5 C2.6,5 2.9,5 2.4,5.4 C2,5.7 1.7,6.5 1.5,7.6 L1,7.6 L1,4 L1,4 Z" id="Shape" sketch:type="MSShapeGroup"></path>
            <path d="M11,8 L21,8 L21,11.6 L20.5,11.6 C20.3,10.5 19.9,9.7 19.6,9.4 C19.2,9.1 17,9 17,9 L17,16 C17,16.8 17.2,17 17.4,17.2 C17.7,17.4 18.1,17.5 19,17.6 L19,18 L13,18 L13,17.6 C13.9,17.5 14.4,17.4 14.6,17.2 C14.8,17 15,16.9 15,16 L15,9 L13.8,9 C12.6,9 12.9,9 12.4,9.4 C12,9.7 11.7,10.5 11.5,11.6 L11,11.6 L11,8 L11,8 Z" id="Shape" sketch:type="MSShapeGroup"></path>
        </g>
    </g>
</svg>
